docs/public/static/branding/base-ui/radix-dark.svg

<svg fill="none" height="37" viewBox="0 0 77 37" width="77" xmlns="http://www.w3.org/2000/svg" xmlns:xlink="http://www.w3.org/1999/xlink"><clipPath id="a"><path d="m12 11h15v15h-15z"/></clipPath><clipPath id="b"><path d="m29 12.7144h36v11.5715h-36z"/></clipPath><rect fill="#14191f" height="36" rx="7.5" width="76" x=".5" y=".5"/><g clip-path="url(#a)" fill="#fff"><path d="m19.1984 25.9999c-2.6509 0-4.8-2.149-4.8-4.8s2.1491-4.8 4.8-4.8z"/><path d="m19.1984 11h-4.8v4.8h4.8z"/><path d="m22.2008 15.8c1.3254 0 2.4-1.0745 2.4-2.4s-1.0746-2.4-2.4-2.4c-1.3255 0-2.4 1.0745-2.4 2.4s1.0745 2.4 2.4 2.4z"/></g><g clip-path="url(#b)" fill="#fff"><path d="m43.0801 23.6469h1.6378c-.1191-.6227-.1799-1.215-.1799-1.9288v-2.9767c0-2.0048-1.1448-2.9919-3.1987-2.9919-1.8604 0-3.1255.972-3.2892 2.6274h1.8306c.0596-.7138.5656-1.1846 1.3991-1.1846.8633 0 1.4288.4556 1.4288 1.3972v.3645l-2.2623.2582c-1.5329.1822-2.7236.8201-2.7236 2.3692 0 1.3972 1.0715 2.2325 2.545 2.2325 1.2056 0 2.2224-.5012 2.6439-1.382.0185.5277.1685 1.215.1685 1.215zm-2.2915-1.1846c-.759 0-1.1758-.3797-1.1758-.9872 0-.8049.6102-.9872 1.414-1.0935l1.6818-.1974v.4708c0 1.215-.9376 1.8073-1.92 1.8073zm10.235 1.1846h1.8754v-10.9325h-1.9051v4.4779c-.3572-.7746-1.2204-1.4428-2.3962-1.4428-2.0439 0-3.4625 1.6554-3.4625 4.0398 0 2.3996 1.4186 4.0399 3.4625 4.0399 1.146 0 2.0538-.638 2.4259-1.4125zm.0149-3.7209c0 1.5035-.6995 2.4756-1.9051 2.4756-1.2353 0-2.014-1.0176-2.014-2.6123 0-1.5795.7787-2.6122 2.014-2.6122 1.2056 0 1.9051.972 1.9051 2.4755zm2.973-5.3004h2.0242v-1.8984h-2.0242zm.0595 9.0213h1.9051v-7.7152h-1.9051zm4.2844 0 1.8902-2.6426 1.8753 2.6426h2.1879l-2.9321-4.0399 2.694-3.6753h-2.0391l-1.6819 2.3844-1.6669-2.3844h-2.1879l2.7237 3.7665-2.9023 3.9487z"/><path clip-rule="evenodd" d="m30.8728 23.6427v-3.8464h2.4977l2.3482 3.8464h2.0888l-2.5786-4.1345c1.1668-.3745 2.1896-1.3253 2.1896-2.9244 0-2.1032-1.476-3.2269-3.9461-3.2269h-4.4724v10.2858zm0-8.7732v3.4286h2.5121c1.4262 0 2.1465-.5906 2.1465-1.7143 0-1.1236-.7846-1.7143-2.275-1.7143z" fill-rule="evenodd"/></g><rect height="36" rx="7.5" stroke="#2f3a46" stroke-dasharray="4 4" width="76" x=".5" y=".5"/></svg>

<svg width="77" height="37" viewBox="0 0 77 37" fill="none" xmlns="http://www.w3.org/2000/svg">
<rect x="0.5" y="0.5" width="76" height="36" rx="7.5" fill="#14191F"/>
<g clip-path="url(#clip0_6585_844566)">
<path d="M19.1984 25.9999C16.5475 25.9999 14.3984 23.8509 14.3984 21.1999C14.3984 18.5489 16.5475 16.3999 19.1984 16.3999V25.9999Z" fill="white"/>
<path d="M19.1984 11H14.3984V15.8H19.1984V11Z" fill="white"/>
<path d="M22.2008 15.8C23.5262 15.8 24.6008 14.7255 24.6008 13.4C24.6008 12.0745 23.5262 11 22.2008 11C20.8753 11 19.8008 12.0745 19.8008 13.4C19.8008 14.7255 20.8753 15.8 22.2008 15.8Z" fill="white"/>
</g>
<g clip-path="url(#clip1_6585_844566)">
<path d="M43.0801 23.6469H44.7179C44.5988 23.0242 44.538 22.4319 44.538 21.7181V18.7414C44.538 16.7366 43.3932 15.7495 41.3393 15.7495C39.4789 15.7495 38.2138 16.7215 38.0501 18.3769H39.8807C39.9403 17.6631 40.4463 17.1923 41.2798 17.1923C42.1431 17.1923 42.7086 17.6479 42.7086 18.5895V18.954L40.4463 19.2122C38.9134 19.3944 37.7227 20.0323 37.7227 21.5814C37.7227 22.9786 38.7942 23.8139 40.2677 23.8139C41.4733 23.8139 42.4901 23.3127 42.9116 22.4319C42.9301 22.9596 43.0801 23.6469 43.0801 23.6469ZM40.7886 22.4623C40.0296 22.4623 39.6128 22.0826 39.6128 21.4751C39.6128 20.6702 40.223 20.4879 41.0268 20.3816L42.7086 20.1842V20.655C42.7086 21.87 41.771 22.4623 40.7886 22.4623ZM51.0236 23.6469H52.899V12.7144H50.9939V17.1923C50.6367 16.4177 49.7735 15.7495 48.5977 15.7495C46.5538 15.7495 45.1352 17.4049 45.1352 19.7893C45.1352 22.1889 46.5538 23.8292 48.5977 23.8292C49.7437 23.8292 50.6515 23.1912 51.0236 22.4167V23.6469ZM51.0385 19.926C51.0385 21.4295 50.339 22.4016 49.1334 22.4016C47.8981 22.4016 47.1194 21.384 47.1194 19.7893C47.1194 18.2098 47.8981 17.1771 49.1334 17.1771C50.339 17.1771 51.0385 18.1491 51.0385 19.6526V19.926ZM54.0115 14.6256H56.0357V12.7272H54.0115V14.6256ZM54.071 23.6469H55.9761V15.9317H54.071V23.6469ZM58.3554 23.6469L60.2456 21.0043L62.1209 23.6469H64.3088L61.3767 19.607L64.0707 15.9317H62.0316L60.3497 18.3161L58.6828 15.9317H56.4949L59.2186 19.6982L56.3163 23.6469H58.3554Z" fill="white"/>
<path fill-rule="evenodd" clip-rule="evenodd" d="M30.8728 23.6427V19.7963H33.3705L35.7187 23.6427H37.8075L35.2289 19.5082C36.3957 19.1337 37.4185 18.1829 37.4185 16.5838C37.4185 14.4806 35.9425 13.3569 33.4724 13.3569H29V23.6427H30.8728ZM30.8728 14.8695V18.2981H33.3849C34.8111 18.2981 35.5314 17.7075 35.5314 16.5838C35.5314 15.4602 34.7468 14.8695 33.2564 14.8695H30.8728Z" fill="white"/>
</g>
<rect x="0.5" y="0.5" width="76" height="36" rx="7.5" stroke="#2F3A46" stroke-dasharray="4 4"/>
<defs>
<clipPath id="clip0_6585_844566">
<rect width="15" height="15" fill="white" transform="translate(12 11)"/>
</clipPath>
<clipPath id="clip1_6585_844566">
<rect width="36" height="11.5715" fill="white" transform="translate(29 12.7144)"/>
</clipPath>
</defs>
</svg>
